X: 28330
T: Mug Of Brown Ale, The
R: jig
M: 6/8
K: Adorian
f|eAA fAA|~g3 age|dBA ~G3|BAG Bcd|
eAA fAA|~g3 age|def gdB|cAA A2:|
z|efg ~a3|aba age|def ~g3|gba ged|
efg ~a3|aba age|def gdB|cAA A2:|

